X: 9793
T: Denis McMahon's
R: slide
M: 12/8
K: Gmajor
|:G2F G2A B2e efe|d2B BAB d2B BAB|
G2F G2A B2e efe|1 d2B ABA G3 G2D:|2 d2B ABA G3 G2f||
|:g2f e2d B2e efe|d2B BAB d2B B3|
g2f e2d B2e efe|1 d2B ABA G3 G2f:|2 d2B ABA G3 G2D||

